X:1
T:My Soul Will Overcome
T:Robert Lowry, 1877
T:My Soul Will Overcome
T:Public Domain
T:Public Domain
C:Robert Lowry, 1877
Z:Public Domain
%%score ( 1 2 ) ( 3 4 )
L:1/8
M:4/4
K:G
V:1 treble 
V:2 treble 
V:3 bass 
V:4 bass 
V:1
 [B,D]2 | [DG]2 [GB]2 [GB]2 (AG) | ([DF][EG])([FA][GB]) [FA]2 [Ac]2 | [GB]2 [Gd]2 [Gc]2 [EA]2 | %4
w: 1.~Help-|less I come to *|sus’ * blood, * And all|my- self re- sign;|
w: 2.~’Tis|Je- sus gives me *|with- * in, * And nerves|me for the fray;|
w: 3.~Tho’|clouds of con- flict *|my * view, * And foes|are fierce and strong,|
 (G4 F2) D2 | [DG]2 [GB]2 [GB]2 (AG) | ([DF][EG])([FA][FB]) [Ac]2 [Fd]2 | %7
w: I * lose|ness in that flood, *|ga- * ther * strength di-|
w: He * spoiled|of death and sin, *|took * their * pow’r a-|
w: In * Je-|I’ll strug- gle thro’, *|en- * ter * Heav’n with|
 [GB]2 ([FA]G) [EA]2 (GF) | [DG]4 ||"^Refrain" ([GB]3 [DA]) | [DG][DG][DG][DA] [GB]2 [DA][DG] | %11
w: vine. My * soul will *|come|by *|the blood of the Lamb, My soul|
w: way. * * * * *||||
w: song. * * * * *||||
 [FA]2 [FA]>[FA] [FA]2 ([DF][EG]) | [FA][FA][FA][GB] [Ac]2 [GB][FA] | %13
w: will o- ver- come by *|the blood of the Lamb; O- ver-|
w: ||
w: ||
 [GB]2 [GB]>[GB] [GB]2 [GB][Ac] | [Bd]6 [Ac][GB] | [Ac]6 [GB][FA] | [GB]2 [FA]G [EA]2 [DG]>[DF] | %17
w: come, o- ver- come, O- ver-|come by the|blood of the|Lamb. * * * * *|
w: ||||
w: ||||
 [DG]6 |] %18
w: |
w: |
w: |
V:2
 x2 | x6 D2 | x8 | x8 | D6 D2 | x6 D2 | x8 | x3 G x D2 x | x4 || x4 | x8 | x8 | x8 | x8 | x8 | x8 | %16
w: |Je-|||my weak-|And||o- ver-|||||||||
w: |life|||the hosts|And|||||||||||
w: |hide|||sus’ name|And|||||||||||
 x3 G x4 | x6 |] %18
w: ||
w: ||
w: ||
V:3
 G,2 | [G,B,]2 [G,D]2 [G,D]2 (CB,) | [D,A,]2 [D,D]2 [D,D]2 [F,D]2 | [G,D]2 [G,B,]2 [C,E]2 [C,C]2 | %4
w: ~|~ ~ ~ ~ *|~ ~ ~ ~|~ ~ ~ ~|
 (B,4 A,2) [C,F,]2 | [B,,G,]2 (G,B,) [G,,D]2 (CB,) | [D,A,]2 [D,D]2 [D,D]2 [D,D]2 | %7
w: ~ * ~|~ ~ * ~ ~ *|~ ~ ~ ~|
 [G,D]2 ([D,C][E,B,]) [C,C]2 (B,A,) | [G,,B,]4 || (D3 C) | %10
w: ~ ~ * ~ ~ *|~|~ *|
 [G,B,][G,B,][G,B,][G,C] [G,D]2 [G,C][G,B,] | [D,D]2 [D,D]>[D,D] [D,D]2 [D,A,]2 | %12
w: ~ ~ ~ ~ ~ ~ ~|~ ~ ~ ~ ~|
 [D,D][D,D][D,D][D,D] [D,D]2 [D,D][D,D] | [G,D]2 [G,D]>[G,D] [G,D]2 z2 | %14
w: ~ ~ ~ ~ O- ver- come,|My soul soon will|
 z2 [G,D][G,D] [G,D]2 (F,G,) | [D,D][D,D][D,D][D,D] [D,D]2 [D,D][D,D] | %16
w: o- ver- come. * *||
 [G,D]2 [D,C][E,B,] [C,C]2 [D,B,]>[D,A,] | [G,,B,]6 |] %18
w: ||
V:4
 G,2 | x6 G,,2 | x8 | x8 | D,6 x2 | x2 G,,2 x G,,2 x | x8 | x6 D,2 | x4 || G,4 | x8 | x8 | x8 | %13
w: ~|~|||~|~ ~||~||~||||
 x8 | x6 D2 | x8 | x8 | x6 |] %18
w: |||||

